Papirus/32x32/apps/preferences-system-windows.svg

<svg xmlns="http://www.w3.org/2000/svg" width="32" height="32" version="1">
 <path fill="#c2c2c2" d="m9.5 1c-0.1479 0-0.2871 0.0288-0.4219 0.0684 0.1366-0.0327 0.2718-0.0684 0.4219-0.0684zm-1.5 3v14.5c0 0.831 0.669 1.5 1.5 1.5h19c0.831 0 1.5-0.669 1.5-1.5v-14.5h-22z"/>
 <path opacity=".2" d="m8 18.5v1c0 0.831 0.669 1.5 1.5 1.5h19c0.831 0 1.5-0.669 1.5-1.5v-1c0 0.831-0.669 1.5-1.5 1.5h-19c-0.831 0-1.5-0.669-1.5-1.5z"/>
 <path fill="#d3d3d3" d="m2 13v14.5c0 0.831 0.669 1.5 1.5 1.5h19c0.831 0 1.5-0.669 1.5-1.5v-14.5h-22z"/>
 <path fill="#636e73" d="m3.5 10c-0.831 0-1.5 0.669-1.5 1.5v1.5h22v-1.5c0-0.831-0.669-1.5-1.5-1.5z"/>
 <path fill="#fff" opacity=".1" d="m3.5 10c-0.831 0-1.5 0.669-1.5 1.5v1c0-0.831 0.669-1.5 1.5-1.5h19c0.831 0 1.5 0.669 1.5 1.5v-1c0-0.831-0.669-1.5-1.5-1.5z"/>
 <path fill="#5a6367" d="m9.5 1c-0.831 0-1.5 0.5-1.5 1.5v1.5h22v-1.5c0-0.831-0.669-1.5-1.5-1.5z"/>
 <path fill="#fff" opacity=".1" d="m9.5 1c-0.831 0-1.5 0.669-1.5 1.5v1c0-0.831 0.669-1.5 1.5-1.5h19c0.831 0 1.5 0.669 1.5 1.5v-1c0-0.831-0.669-1.5-1.5-1.5z"/>
 <path opacity=".2" d="m2 27.5v1c0 0.831 0.669 1.5 1.5 1.5h19c0.831 0 1.5-0.669 1.5-1.5v-1c0 0.831-0.669 1.5-1.5 1.5h-19c-0.831 0-1.5-0.669-1.5-1.5z"/>
</svg>

<svg xmlns="http://www.w3.org/2000/svg" width="32" height="32" version="1">
 <path d="M 9.5,1 C 9.3521,1 9.2129,1.0288 9.0781,1.0684 9.2147,1.0357 9.3499,1 9.5,1 Z M 8,4.9 8,18.5 C 8,19.331 8.669,20 9.5,20 l 19,0 C 29.331,20 30,19.331 30,18.5 L 30,4.9 Z" style="fill:#d3d3d3"/>
 <path opacity=".2" d="m8 18.5v1c0 0.831 0.669 1.5 1.5 1.5h19c0.831 0 1.5-0.669 1.5-1.5v-1c0 0.831-0.669 1.5-1.5 1.5h-19c-0.831 0-1.5-0.669-1.5-1.5z"/>
 <path d="M 2,13.9 2,27.5 C 2,28.331 2.669,29 3.5,29 l 19,0 c 0.831,0 1.5,-0.669 1.5,-1.5 l 0,-13.6 z" style="fill:#e4e4e4"/>
 <path d="M 3.5,10 C 2.669,10 2,10.669 2,11.5 l 0,2.5 22,0 0,-2.5 C 24,10.669 23.331,10 22.5,10 Z" style="fill:#636e73"/>
 <path d="M 9.5,1 C 8.669,1 8,1.5 8,2.5 L 8,5 30,5 30,2.5 C 30,1.669 29.331,1 28.5,1 Z" style="fill:#5a6367"/>
 <path fill="#fff" opacity=".1" d="m9.5 1c-0.831 0-1.5 0.669-1.5 1.5v1c0-0.831 0.669-1.5 1.5-1.5h19c0.831 0 1.5 0.669 1.5 1.5v-1c0-0.831-0.669-1.5-1.5-1.5z"/>
 <path opacity=".2" d="m2 27.5v1c0 0.831 0.669 1.5 1.5 1.5h19c0.831 0 1.5-0.669 1.5-1.5v-1c0 0.831-0.669 1.5-1.5 1.5h-19c-0.831 0-1.5-0.669-1.5-1.5z"/>
</svg>
